X:219
T:Rope Waltz
M:3/4
L:1/4
Q:1/4=120
K:G
d c|:B>c d/2B/2|G2g|f>g a/2f/2|d2c|
B>c  d/2B/2|G2B|A3|A d c|B>c  d/2B/2|
G2g|f>g a/2f/2|d2c|B>A G|Ac F|
G>A B/2A/2|1Gdc:|2Gga|:
b2a|g2 f|gfe|d2 b |c'2b|
a2g|f>g a/2f/2|dga|b2a|g2 f|
gfe|d2 c | B>A G |Ac F|
G>A B/2A/2|1Gga:|2G3|
